img/shield-check.svg

<svg width="80" height="80" viewBox="0 0 80 80" fill="none" xmlns="http://www.w3.org/2000/svg">
<g clip-path="url(#clip0_1_167)">
<path d="M61.9368 7.13333L41.0534 0.169994C40.3697 -0.0577429 39.6305 -0.0577429 38.9468 0.169994L18.0634 7.13333C14.7431 8.23627 11.8548 10.3575 9.8089 13.1957C7.76299 16.0339 6.66354 19.4446 6.66676 22.9433V40C6.66676 65.21 37.3334 79.1333 38.6468 79.7133C39.0728 79.9026 39.5339 80.0004 40.0001 80.0004C40.4663 80.0004 40.9273 79.9026 41.3534 79.7133C42.6668 79.1333 73.3334 65.21 73.3334 40V22.9433C73.3366 19.4446 72.2372 16.0339 70.1913 13.1957C68.1454 10.3575 65.2571 8.23627 61.9368 7.13333ZM66.6668 40C66.6668 58.1833 45.6034 70.11 40.0001 72.9633C34.3901 70.12 13.3334 58.23 13.3334 40V22.9433C13.3336 20.8443 13.9943 18.7985 15.222 17.0958C16.4496 15.3931 18.1819 14.12 20.1734 13.4567L40.0001 6.84666L59.8268 13.4567C61.8183 14.12 63.5506 15.3931 64.7782 17.0958C66.0058 18.7985 66.6666 20.8443 66.6668 22.9433V40Z" fill="#EFBE4C"/>
<path d="M50.9999 27.6667L37.0399 41.6667L29.5599 33.8667C29.2597 33.5385 28.8969 33.2736 28.4927 33.0878C28.0886 32.902 27.6514 32.7989 27.2069 32.7847C26.7623 32.7705 26.3194 32.8454 25.9042 33.0049C25.4891 33.1645 25.11 33.4056 24.7895 33.7139C24.4689 34.0222 24.2133 34.3916 24.0377 34.8003C23.862 35.2089 23.77 35.6486 23.7669 36.0934C23.7639 36.5381 23.8498 36.979 24.0198 37.3901C24.1898 37.8011 24.4403 38.1739 24.7565 38.4867L32.4432 46.4867C33.0165 47.1058 33.7093 47.6023 34.4799 47.9461C35.2505 48.2898 36.0828 48.4738 36.9265 48.4867H37.0365C37.8634 48.4894 38.6826 48.3279 39.4465 48.0114C40.2104 47.695 40.9038 47.23 41.4865 46.6433L55.7265 32.4033C56.0376 32.093 56.2844 31.7244 56.453 31.3187C56.6215 30.9129 56.7085 30.4779 56.709 30.0385C56.7095 29.5992 56.6234 29.164 56.4557 28.7579C56.288 28.3518 56.0419 27.9827 55.7315 27.6717C55.4212 27.3607 55.0526 27.1138 54.6469 26.9452C54.2411 26.7767 53.8061 26.6897 53.3668 26.6892C52.9274 26.6887 52.4922 26.7748 52.0861 26.9425C51.68 27.1103 51.3109 27.3563 50.9999 27.6667Z" fill="#EFBE4C"/>
</g>
<defs>
<clipPath id="clip0_1_167">
<rect width="80" height="80" fill="white"/>
</clipPath>
</defs>
</svg>

<svg width="80" height="80" fill="none" xmlns="http://www.w3.org/2000/svg"><g clip-path="url(#clip0_1_167)" fill="#EFBE4C"><path d="M61.937 7.133L41.053.17a3.333 3.333 0 00-2.106 0L18.063 7.133a16.643 16.643 0 00-11.396 15.81V40c0 25.21 30.666 39.133 31.98 39.713a3.333 3.333 0 002.706 0c1.314-.58 31.98-14.503 31.98-39.713V22.943a16.643 16.643 0 00-11.396-15.81zM66.667 40c0 18.183-21.064 30.11-26.667 32.963C34.39 70.12 13.333 58.23 13.333 40V22.943a10 10 0 016.84-9.486L40 6.847l19.827 6.61a10 10 0 016.84 9.486V40z"/><path d="M51 27.667l-13.96 14-7.48-7.8a3.333 3.333 0 10-4.803 4.62l7.686 8a6.242 6.242 0 004.483 2h.11a6.243 6.243 0 004.45-1.844l14.24-14.24A3.345 3.345 0 1051 27.667z"/></g><defs><clipPath id="clip0_1_167"><path fill="#fff" d="M0 0h80v80H0z"/></clipPath></defs></svg>
